src/assets/outline/Wing.svg

<?xml version="1.0" encoding="UTF-8"?>
<svg width="24" height="24" viewBox="0 0 24 24" xmlns="http://www.w3.org/2000/svg">
 <path d="m17 19.75c-0.26 0-0.51-0.14-0.64-0.37l-1.85-3.1c-0.14-0.23-0.14-0.52-0.01-0.76l3.34-5.83-2.49-4.33c-0.13-0.23-0.13-0.52 0-0.75s0.38-0.37 0.65-0.37h3.5c0.27 0 0.52 0.13999 0.65 0.37999l2.7 4.7c0.13 0.23 0.13 0.50999 0 0.73996l-5.2 9.3c-0.13 0.23-0.38 0.38-0.64 0.38 0 0.01-0.01 0.01-0.01 0.01zm-0.98-3.86 0.96 1.61 4.36-7.8-2.27-3.96h-1.77l2.05 3.58c0.13 0.23 0.13 0.52 0 0.74996l-3.33 5.82z"/>
 <path d="m10 19.75c-0.26001 0-0.51003-0.14-0.64003-0.37l-1.85-3.1c-0.14-0.23-0.14001-0.52-0.01001-0.76l3.34-5.83-2.49-4.33c-0.13-0.23-0.13-0.52 0-0.75s0.38-0.37 0.65-0.37h3.5c0.27 0 0.52 0.13999 0.65 0.37999l2.7 4.7c0.13 0.23 0.13 0.50999 0 0.73996l-5.2 9.3c-0.13 0.23-0.38 0.38-0.64 0.38 0 0.01-0.01 0.01-0.01 0.01zm-0.98002-3.86 0.96002 1.61 4.36-7.8-2.27-3.96h-1.77l2.05 3.58c0.13 0.23 0.13 0.52 0 0.74996l-3.33 5.82z"/>
 <path d="m6.2999 13.45c-0.27 0-0.51-0.14-0.65-0.37l-4.5-7.7c-0.14-0.23-0.14-0.52 0-0.75 0.13-0.23 0.38-0.38 0.65-0.38h3.5c0.27 0 0.52002 0.15 0.65002 0.38l2.7 4.8c0.13 0.23 0.13002 0.52-0.00998 0.75001l-1.7 2.9c-0.13 0.23-0.37001 0.37-0.64001 0.37zm-3.19-7.7 3.19 5.47 0.83001-1.42-2.27-4.04h-1.75v-0.00999z"/>
</svg>

<svg width="24" height="24" viewBox="0 0 24 24"  xmlns="http://www.w3.org/2000/svg">
<path d="M17.0001 19.7502C16.7401 19.7502 16.4901 19.6102 16.3601 19.3802L14.5101 16.2802C14.3701 16.0502 14.3701 15.7602 14.5001 15.5202L17.8401 9.69023L15.3501 5.36023C15.2201 5.13023 15.2201 4.84023 15.3501 4.61023C15.4801 4.38023 15.7301 4.24023 16.0001 4.24023H19.5001C19.7701 4.24023 20.0201 4.38022 20.1501 4.62022L22.8501 9.32024C22.9801 9.55024 22.9801 9.83023 22.8501 10.0602L17.6501 19.3602C17.5201 19.5902 17.2701 19.7402 17.0101 19.7402C17.0101 19.7502 17.0001 19.7502 17.0001 19.7502ZM16.0201 15.8902L16.9801 17.5002L21.3401 9.70023L19.0701 5.74023H17.3001L19.3501 9.32024C19.4801 9.55024 19.4801 9.84024 19.3501 10.0702L16.0201 15.8902Z" />
<path d="M10.0001 19.7502C9.74009 19.7502 9.49007 19.6102 9.36007 19.3802L7.5101 16.2802C7.3701 16.0502 7.37009 15.7602 7.50009 15.5202L10.8401 9.69023L8.35009 5.36023C8.22009 5.13023 8.22009 4.84023 8.35009 4.61023C8.48009 4.38023 8.73009 4.24023 9.00009 4.24023H12.5001C12.7701 4.24023 13.0201 4.38022 13.1501 4.62022L15.8501 9.32024C15.9801 9.55024 15.9801 9.83023 15.8501 10.0602L10.6501 19.3602C10.5201 19.5902 10.2701 19.7402 10.0101 19.7402C10.0101 19.7502 10.0001 19.7502 10.0001 19.7502ZM9.02008 15.8902L9.9801 17.5002L14.3401 9.70023L12.0701 5.74023H10.3001L12.3501 9.32024C12.4801 9.55024 12.4801 9.84024 12.3501 10.0702L9.02008 15.8902Z" />
<path d="M6.29992 13.45C6.02992 13.45 5.78992 13.31 5.64992 13.08L1.14992 5.38C1.00992 5.15 1.00992 4.86 1.14992 4.63C1.27992 4.4 1.52992 4.25 1.79992 4.25H5.29992C5.56992 4.25 5.81994 4.4 5.94994 4.63L8.64992 9.42999C8.77992 9.65999 8.77994 9.94999 8.63994 10.18L6.93993 13.08C6.80993 13.31 6.56992 13.45 6.29992 13.45ZM3.10991 5.75L6.29992 11.22L7.12993 9.8L4.85991 5.75999H3.10991V5.75Z" />
</svg>
